!!!OTL: Das Raethsel.
!!!OTL-incipit: EI JUNGFER ICH WILL IHR WAS AUF ZU RATHEN GEBEN
!!!ARE: Europa, Mitteleuropa, Deutschland, Mittelrhein
!!!SCT: Z1316
!!!TXL: @@DE
!!!YEM: Copyright 1995, estate of Helmut Schaffrath.
**kern	**text
*ICvox	*
*M4/4	*
*met(c)	*
*k[f#c#]	*
*D:	*
!LO:TX:a:t=Vom Mittelrhein.	!
{4a	Ei,
=1	=1
8.dd	Jung-
16a	-fer,
8.f#	ich
16a	will
4d	ihr
4f#	was
=2	=2
8.e	auf
16e	ʒu
8a	rathen
8a	.
8f#L	ge-
8eJ	.
8d}	-ben,
{8a	und
=3	=3
8.dd	wenn
16a	ſie
8.f#	das
16a	er-
4d	-ra-
8.f#	-thet,
16f#	ſo
=4	=4
4e	hei-
8f#	-rath
8g#	ich
4a	ſie.
4r}	.
=5	=5
{4f#	Wo
8f#	iſt
8f#	'ne
4a	Jung-
4a	-frau
=6	=6
8gL	oh-
8f#J	.
8gL	-ne
8aJ	.
4f#	Ʒopf?
4r}	.
=7	=7
{4d	wo
8d	iſt
8d	ein
4f#	Kirch-
4f#	-thurm
=8	=8
8eL	oh-
8dJ	.
8eL	-ne
8f#J	.
4d	Knopf?
4r}	.
=9	=9
{4f#	wo
8f#	iſt
8f#	'ne
4a	Straße
4a	.
=10	=10
8gL	oh-
8f#J	.
8gL	-ne
8aJ	.
4f#	Staub?
4r}	.
=11	=11
{4d	wo
8d	iſt
8d	ein
8f#	grü-
8f#	-ner
4f#	Baum
=12	=12
8eL	oh-
8dJ	.
8eL	-ne
8f#J	.
4d	Laub?
8r}	.
{8a	Die
=13	=13
8.dd	Jungfer
16a	.
8f#	in
8a	der
4d	Wie-
4f#	-ge
=14	=14
4e	hat
4a	kein'n
4f#	Ʒopf,
8r}	.
{8a	der
=15	=15
8.dd	Ba-
16a	-by-
8f#	-lon'ſche
8a	.
4d	Kirchthurm
4f#	.
=16	=16
4e	hat
8.a	kein'n
16a	.
4f#	Knopf,
8r}	.
{8a	die
=17	=17
8.dd	Straße
16a	.
8.f#	auf
16a	der
4d	Do-
4f#	-nau
=18	=18
4e	iſt
8a	oh-
8a	-ne
4f#	Staub,
8r}	.
{8a	der
=19	=19
8.dd	grü-
16a	-ne
8f#	Tannen-
8a	.
4d	-baum
4f#	der
=20	=20
4e	hat
4a	kein
4f#	Laub.
8r}	.
=||	=||
{8a	Nun,
=21	=21
8a	Jungfer,
16a	.
16a	nun,
8a	Jungfer,
16a	.
16a	nun,
8a	Jungfer,
16a	.
16a	nun,
8a	Jungfer,
16a}	.
{16a	nun
=22	=22
!LO:TUP:a	!
(12a\	hei-
12ff#	-rath
12cc#)	ich
4.dd	ſie,
16aL	nun
16f#J	.
(12b/	hei-
12a	-rath
12c#)	ich
=23	=23
4d	ſie!
4r	.
4r}	.
==	==
!!!AGN: Zech -, Schalks - Lied
!!!ONB: ESAC (Essen Associative Code) Database: ZUCCAL
!!!AMT: simple quadruple
!!!AIN: vox
!!!EED: Helmut Schaffrath
!!!EEV: 1.0
!!!GTL: VIII. Zech- und Schalks-Lieder.
!!!URL-scan: https://www.digitale-sammlungen.de/de/view/bsb11160573?page=578
!!!ENC: Anna Maria Matuszewska
!!!EEV: 2025/02/07
*-	*-
